X: 118
T: My Lady's Courant
M:4/4
L:1/8
Q:160
S:Playford
O:Manuscript
A:English
K:F
f2 g2 a2 ga|bagf e2 c2| d2 B2 G2 c2|A2 F2 c4|f2 g2 a2 ga|bagf e2 c2| d2 B2 G2 c2|A2 F2 c4:|
|: G2 E2 GEGE|c2 G2 A2 F2|d2 B2 dBdB|g2 d2 e2 c2|a2 gf g2 fe|defg e2 c2| dcBA G2 c2| A2 F6:|

